X: 123
T: Sonny Brogan's
M: 6/8
L: 1/8
R: jig
K:Ador
"Am"cAB ~c3|"D"dcd "Am"ede|A2A c2e|"D"dcA AGA|
"Am"EAB cBc|"D"dcd "Am"ede|a3 "G"ged|"C"cAG "Am"A3:|
|: "Am"eaa aba|"C"gef "G"ged|"Am"eaa aba|"G"ged "Am"cAA|
"Am"eaa eaa|"C"gef "G"~g3|"Am"~a3"G" ged|"C"cAG "Am"A3:|


